usr/share/icons/biglinux-icons-material-dark/22/actions/draw-cuboid.svg

<svg xmlns="http://www.w3.org/2000/svg" viewBox="0 0 22 22">
  <defs id="defs3051">
    <style type="text/css" id="current-color-scheme">
      .ColorScheme-Text {
        color:#dedede;
      }
      </style>
  </defs>
 <path 
     style="fill:currentColor;fill-opacity:1;stroke:none" 
     d="M 11 0.41210938 C 10.2585 0.88270937 10.993 0.41209063 10.21875 0.90039062 L 2 6.3691406 L 2 7.5878906 L 2 15.181641 L 2 15.587891 C 3.14882 16.339591 2.22209 15.732191 2.75 16.087891 L 10.09375 20.994141 C 10.9891 21.590341 10.10175 20.994091 11 21.587891 C 19.02331 16.263691 17.05377 17.574091 19.375 16.025391 C 20.00661 15.563791 19.49219 15.930441 20 15.556641 L 20 15.212891 L 20 15.181641 L 20 7.5878906 L 20 6.3691406 C 17.6762 4.8224406 19.66009 6.1425406 19.4375 5.9941406 L 11.78125 0.90039062 L 11.375 0.65039062 C 11.09224 0.46839062 12.59837 1.4412094 11 0.41210938 z M 10.5 1.9316406 L 10.5 9.6816406 L 10.4375 9.7753906 L 10.21875 9.9003906 L 3 14.712891 L 3 6.9316406 L 10.5 1.9316406 z M 11.5 1.9316406 L 19 6.9316406 L 19 14.556641 L 11.5 9.5566406 L 11.5 1.9316406 z M 11.125 10.525391 L 18.4375 15.400391 L 11 20.369141 L 3.65625 15.494141 L 10.78125 10.744141 L 11.125 10.525391 z "
     class="ColorScheme-Text"
     />
 <path 
     style="fill:currentColor;fill-opacity:0.2;stroke:none" 
     d="M 10.582031 1.875 C 10.569361 1.875 8.8326563 3.0222281 6.7226562 4.4238281 L 2.8867188 6.9726562 L 2.8867188 10.929688 C 2.8867188 13.107088 2.8980094 14.888672 2.9121094 14.888672 C 2.9261894 14.888672 4.6628944 13.740137 6.7714844 12.335938 L 10.605469 9.7832031 L 10.605469 5.828125 C 10.605469 3.653325 10.594731 1.875 10.582031 1.875 z "
     class="ColorScheme-Text"
     />
 <path 
     style="fill:currentColor;fill-opacity:0.4;stroke:none" 
     d="M 11.089844 10.394531 C 10.975114 10.399231 3.4068719 15.505828 3.4511719 15.548828 C 3.4730919 15.569928 5.1727156 16.713391 7.2285156 18.087891 C 9.2843156 19.462391 10.977987 20.580312 10.992188 20.570312 C 11.632198 20.155512 18.594562 15.444875 18.601562 15.421875 C 18.616593 15.372075 11.174144 10.394531 11.089844 10.394531 z "
     class="ColorScheme-Text"
     />
 <path 
     style="fill:currentColor;fill-opacity:0.6;stroke:none" 
     d="M 11.427734 1.8125 C 11.415134 1.8125 11.403577 3.563625 11.404297 5.703125 L 11.40625 9.5917969 L 15.238281 12.15625 C 17.345391 13.56625 19.074078 14.722656 19.080078 14.722656 C 19.086478 14.724356 19.091797 12.969919 19.091797 10.824219 L 19.091797 6.9238281 L 15.271484 4.3671875 C 13.170024 2.9616875 11.440334 1.8125 11.427734 1.8125 z "
     class="ColorScheme-Text"
     />
</svg>

<svg xmlns="http://www.w3.org/2000/svg" viewBox="0 0 22 22">
<defs id="defs3051">
<style id="current-color-scheme" type="text/css">
.ColorScheme-Text{color:#dedede}
</style>
</defs>
<path d="M11 .412c-.742.47-.007 0-.781.488L2 6.37v9.218c1.149.752.222.144.75.5l7.344 4.906c.895.596.008 0 .906.594 8.023-5.324 6.054-4.014 8.375-5.563.632-.461.117-.095.625-.468V6.369c-2.324-1.547-.34-.226-.562-.375L11.78.9l-.406-.25c-.283-.182 1.223.791-.375-.238m-.5 1.52v7.75l-.062.093-.22.125L3 14.713V6.932zm1 0 7.5 5v7.625l-7.5-5zm-.375 8.593 7.313 4.875L11 20.37l-7.344-4.876 7.125-4.75z" class="ColorScheme-Text" style="fill:currentColor;fill-opacity:1;stroke:none"/>
<path d="M10.582 1.875c-.013 0-1.75 1.147-3.86 2.549L2.888 6.973v3.957c0 2.177.011 3.959.025 3.959s1.75-1.149 3.86-2.553l3.833-2.553V5.828c0-2.175-.01-3.953-.023-3.953" class="ColorScheme-Text" style="fill:currentColor;fill-opacity:.2;stroke:none"/>
<path d="M11.09 10.395c-.115.004-7.683 5.11-7.639 5.154.022.02 1.722 1.164 3.778 2.539 2.055 1.374 3.749 2.492 3.763 2.482.64-.414 7.603-5.125 7.61-5.148.015-.05-7.428-5.027-7.512-5.027" class="ColorScheme-Text" style="fill:currentColor;fill-opacity:.4;stroke:none"/>
<path d="M11.428 1.813c-.013 0-.024 1.75-.024 3.89l.002 3.889 3.832 2.564c2.107 1.41 3.836 2.567 3.842 2.567.006.001.012-1.753.012-3.899v-3.9l-3.82-2.557a413 413 0 0 0-3.844-2.554" class="ColorScheme-Text" style="fill:currentColor;fill-opacity:.6;stroke:none"/>
</svg>
